img/social/RUTUBE.svg

<svg width="50" height="50" viewBox="0 0 50 50" fill="none" xmlns="http://www.w3.org/2000/svg">
<mask id="mask0_3299_7314" style="mask-type:luminance" maskUnits="userSpaceOnUse" x="0" y="0" width="50" height="50">
<path d="M37.8788 0H12.1212C5.42685 0 0 5.42685 0 12.1212V37.8788C0 44.5731 5.42685 50 12.1212 50H37.8788C44.5731 50 50 44.5731 50 37.8788V12.1212C50 5.42685 44.5731 0 37.8788 0Z" fill="white"/>
</mask>
<g mask="url(#mask0_3299_7314)">
<path d="M50 0H0V50H50V0Z" fill="white"/>
<path d="M50 25C63.8072 25 75 13.8071 75 1.14441e-05C75 -13.8071 63.8072 -25 50 -25C36.1929 -25 25 -13.8071 25 1.14441e-05C25 13.8071 36.1929 25 50 25Z" fill="#ED143B"/>
<path d="M30.8848 23.8585H16.113V18.0131H30.8848C31.7476 18.0131 32.3476 18.1636 32.6487 18.4262C32.9498 18.6888 33.1363 19.1759 33.1363 19.8875V21.9864C33.1363 22.7361 32.9498 23.2233 32.6487 23.4859C32.3476 23.7485 31.7476 23.8608 30.8848 23.8608V23.8585ZM31.8982 12.5022H9.84839V37.5H16.113V29.3672H27.6581L33.1363 37.5H40.1514L34.1115 29.3291C36.3383 28.9991 37.3382 28.3167 38.1628 27.192C38.9874 26.0674 39.401 24.2693 39.401 21.8697V19.9953C39.401 18.5721 39.2503 17.4475 38.9874 16.5855C38.7245 15.7235 38.2753 14.9737 37.637 14.3003C36.9629 13.6628 36.2124 13.2138 35.3114 12.913C34.4103 12.6504 33.2846 12.5 31.8982 12.5V12.5022Z" fill="#100943"/>
</g>
</svg>

<svg width="50" height="50" fill="none" xmlns="http://www.w3.org/2000/svg"><mask id="a" style="mask-type:luminance" maskUnits="userSpaceOnUse" x="0" y="0" width="50" height="50"><path d="M37.879 0H12.12C5.427 0 0 5.427 0 12.121V37.88C0 44.573 5.427 50 12.121 50H37.88C44.573 50 50 44.573 50 37.879V12.12C50 5.427 44.573 0 37.879 0Z" fill="#fff"/></mask><g mask="url(#a)"><path d="M50 0H0v50h50V0Z" fill="#fff"/><path d="M50 25c13.807 0 25-11.193 25-25S63.807-25 50-25 25-13.807 25 0s11.193 25 25 25Z" fill="#ED143B"/><path d="M30.885 23.858H16.113v-5.845h14.772c.863 0 1.463.15 1.764.413.3.263.487.75.487 1.462v2.098c0 .75-.186 1.237-.487 1.5-.301.262-.901.375-1.764.375v-.003Zm1.013-11.356H9.848V37.5h6.265v-8.133h11.545l5.478 8.133h7.015l-6.04-8.17c2.227-.33 3.227-1.013 4.052-2.138.824-1.125 1.238-2.923 1.238-5.322v-1.875c0-1.423-.15-2.547-.414-3.41a5.682 5.682 0 0 0-1.35-2.285 6.105 6.105 0 0 0-2.326-1.387c-.9-.263-2.026-.413-3.413-.413v.002Z" fill="#100943"/></g></svg>
